X: 55
T:Portsmouth
M:4/4
L:1/8
Q:1/8=160
K:G
D2[|:GFGA BAGF|E4 e4|1 d2 B2 cBAG|A6 D2:|]2 d2 B2 cBAB|G6 d2||g3 a bagf|
g2 d2 B2 d2|g2 B2 cBAG|A6 D2|GFGA BAGF|E4 e4|d2 B2 cBAB|G6||
